X:55
T: Law of Abundance (The)
C: Peter Fitzgerald
Z: B.Black
R: reel
M: 4/4
L: 1/8
K: G
GA |: BE E2 D2 FA | GE E2 cEBE | GEFA B2 GB | cAFA cABc |
BE E2 D2 FA | GE E2 cEBE | BA A2 ADAd |1 dABd F3 A :|
|2 dABd f3 g || gdBA Be e2 | geae eafe | dA A2 FDDE |
FAde fdef | gdBA Be e2 | geae eafe | edBA GBEB |
|1 A2 FA d2 ef :|2 A2 FA GE E2 ||
